X: 3
T: The Pinch Of Snuff
R: reel
M: 4/4
L: 1/8
K: Emin
|: f6 e2 | d6 B2 | A6 F2 | D2F2 A2F2 | D2F2 A2B2 | c6 A2 | G2E2E4 | c2E2G2E2 :|


Tune 591	Setting 22088

